X: 1
T: norsken
R: polska
M: 3/4
L: 1/8
K: Amaj
|:eB=G Be=g | fB^d fa2 | =g/f/g/a/ b gf2 | =g/f/e/d/e B/B/=GB |
eB=G Be=g | fB^d fa2 | =g/f/g/a/ b gf2 | =g/f/e/d/ -e3 :|


